icon.svg

<?xml version="1.0" encoding="utf-8"?>
<!-- Generator: Adobe Illustrator 27.0.1, SVG Export Plug-In . SVG Version: 6.00 Build 0)  -->
<svg version="1.1" id="Ebene_1" xmlns="http://www.w3.org/2000/svg" xmlns:xlink="http://www.w3.org/1999/xlink" x="0px" y="0px"
	 viewBox="0 0 4627.9 841.9" style="enable-background:new 0 0 4627.9 841.9;" xml:space="preserve">
<style type="text/css">
	.st0{fill:#1D1D1B;}
</style>
<g>
	<path class="st0" d="M127.8,246.3c31.2,2.2,46.8,2.8,125.4,2.8c39,0,74.7-1.7,115.9-2.8c2.8,31.2,3.4,40.7,7.8,74.7l-20.1,3.9
		c-8.4-46.8-18.4-54.6-97-54.6c-18.4,0-26.8,0.6-35.1,1.7c-5,0.5-7.8,0.5-7.8,12.8v127.1h43.4c58,0,69.7-3.9,69.7-45.7h20.1
		c-1.1,16.7-2.2,39-2.2,55.1c0,20.1,0.6,31.8,2.2,54.1h-20.1c-2.8-38.5-11.2-42.3-55.7-42.3H217v69.6c0,11.7,0.5,50.7,2.2,61.9
		c3.4,20.1,21.2,20.6,65.8,20.6c32.9,0,55.2,0,70.8-7.8c18.9-10,25.1-29,32.9-53.5l18.4,4.5c-8.9,37.9-10,46.3-17.3,80.8
		c-17.8-2.8-46.3-2.8-171.7-2.8c-31.2,0-69.1,0-90.3,2.8v-19.5c34-1.1,42.9-2.8,42.9-39.5V314.9c0-40.1-3.3-49.1-42.9-49.6V246.3z"
		/>
	<path class="st0" d="M478.6,211.5c20.6,1.7,34,2.8,51.3,2.8c12.8,0,25.6-1.1,39-2.8l212.9,281.4v-33.5
		c-0.5-40.7-1.7-157.7-3.9-191.7c-2.2-32.9-12.8-37.3-42.9-37.3v-18.9c18.4,2.2,36.8,2.8,55.7,2.8c20.1,0,39.5-1.1,60.2-2.8v18.9
		c-41.2,0-44,12.3-44,82.5v269.7h-11.2c-11.7-15.1-18.9-25.1-34.5-44.6c-17.8-22.3-44.6-56.8-75.2-97
		c-24.5-32.3-72.5-94.8-114.2-147.7L549.4,265c-0.5,17.8-0.5,36.2-0.5,54.6c0,25.1,0,50.2,0.5,74.7c1.1,74.7,1.7,99.2,3.4,123.1
		c2.8,32.9,11.2,37.3,42.9,37.3v19.5c-21.2-0.5-38.5-2.8-57.4-2.8c-20.1,0-39,2.2-59.1,2.8v-19.5c25.1-0.5,37.3-3.3,40.7-32.3
		c3.9-37.9,4.5-197.8,4.5-238.5c0-41.8-2.2-52.4-45.7-53.5V211.5z"/>
	<path class="st0" d="M1227,236.9c-8.9,29.5-11.7,38.5-19.5,78.6h-17.3c1.1-8.4,1.7-12.8,1.7-17.8c0-25.1-14.5-26.2-36.2-26.2h-63.5
		v281.4c0,28.4,4.5,36.8,44.6,36.8v19.5c-23.4-1.1-47.4-2.8-70.8-2.8c-21.1,0-42.9,1.7-64.1,2.8v-19.5c17.8,0,31.8-0.5,37.9-9.5
		c5.6-7.8,6.1-19,6.1-53.5V271.4h-45.7c-37.3,0-49,7.2-65.8,44.6h-18.9c17.3-49,20.1-60.7,24-79.1h8.9c8.9,4.5,17.3,7.8,25.6,9.5
		c8.4,1.7,18.9,2.8,34.5,2.8h118.7c37.4,0,68-2.2,88.6-12.3H1227z"/>
	<path class="st0" d="M1502.4,625.8c-1.1-39.6-12.2-43.4-52.4-43.4h-58v105.3c0,35.1,3.9,39,44,41.2v19.5
		c-29.5-1.1-52.9-2.8-74.1-2.8c-22.3,0-41.2,1.1-60.8,2.8v-19.5c31.2-0.5,41.2-2.8,43.5-27.3c1.1-11.2,1.1-51.8,1.1-62.4V457.5
		c0-45.7-1.1-52.4-44-52.9v-18.9c40.7,1.1,83,2.8,123.7,2.8c45.7,0,76.3-0.6,106.4-2.8l8.4,79.7l-19.5,1.7c-5.6-55.2-32.9-58-102-58
		c-18.4,0-20.6,0.5-22.8,3.3c-1.7,2.2-3.9,11.7-3.9,31.8v116.4h54.6c45.1,0,54.6-3.9,55.7-43.4h18.4c-1.1,21.2-1.1,36.2-1.1,54.1
		c0,18.4,0,36.2,1.1,54.6H1502.4z"/>
	<path class="st0" d="M1615.3,246.3c31.2,2.2,46.8,2.8,125.4,2.8c39,0,74.7-1.7,115.9-2.8c2.8,31.2,3.3,40.7,7.8,74.7l-20.1,3.9
		c-8.4-46.8-18.4-54.6-97-54.6c-18.4,0-26.8,0.6-35.1,1.7c-5,0.5-7.8,0.5-7.8,12.8v127.1h43.5c57.9,0,69.6-3.9,69.6-45.7h20.1
		c-1.1,16.7-2.2,39-2.2,55.1c0,20.1,0.5,31.8,2.2,54.1h-20.1c-2.8-38.5-11.1-42.3-55.7-42.3h-57.4v69.6c0,11.7,0.6,50.7,2.2,61.9
		c3.3,20.1,21.2,20.6,65.8,20.6c32.9,0,55.1,0,70.8-7.8c19-10,25.1-29,32.9-53.5l18.4,4.5c-8.9,37.9-10,46.3-17.3,80.8
		c-17.8-2.8-46.2-2.8-171.6-2.8c-31.2,0-69.1,0-90.3,2.8v-19.5c34-1.1,42.9-2.8,42.9-39.5V314.9c0-40.1-3.4-49.1-42.9-49.6V246.3z"
		/>
	<path class="st0" d="M1996.3,516.1c3.3,15.6,7.8,33.4,17.8,47.9c15,21.8,39.5,31.2,60.2,31.2c37.9,0,70.8-28.4,70.8-67.4
		c0-32.9-20.1-50.7-39-63.5c-7.2-5-44-29.5-52.4-35.1c-21.7-15.1-57.9-39.6-57.9-93.6c0-19.5,8.4-95.8,113.1-95.8
		c29,0,46.8,5.6,65.2,11.7c3.3,30.1,5,38.5,11.2,66.3l-19,3.9c-7.2-23.4-18.4-61.3-66.3-61.3c-35.7,0-65.2,23.4-65.2,61.9
		c0,34.5,21.2,48.5,76.9,84.1c35.1,22.3,74.7,49,74.7,104.7c0,54.1-41.2,104.2-113.1,104.2c-40.1,0-63.5-10.6-88.1-21.7
		c-3.3-32.9-5-42.4-10.6-73.6L1996.3,516.1z"/>
	<path class="st0" d="M2577,236.9c-8.9,29.5-11.7,38.5-19.5,78.6h-17.3c1.1-8.4,1.7-12.8,1.7-17.8c0-25.1-14.5-26.2-36.2-26.2h-63.5
		v281.4c0,28.4,4.5,36.8,44.6,36.8v19.5c-23.4-1.1-47.4-2.8-70.8-2.8c-21.1,0-42.9,1.7-64.1,2.8v-19.5c17.8,0,31.8-0.5,37.9-9.5
		c5.6-7.8,6.1-19,6.1-53.5V271.4h-45.7c-37.3,0-49,7.2-65.8,44.6h-18.9c17.3-49,20.1-60.7,24-79.1h8.9c8.9,4.5,17.3,7.8,25.6,9.5
		c8.4,1.7,18.9,2.8,34.5,2.8h118.7c37.4,0,68-2.2,88.6-12.3H2577z"/>
	<path class="st0" d="M2651.2,246.3c20.6,1.7,41.2,2.8,61.8,2.8c24,0,47.9-1.1,73-2.8v18.9c-42.9,0-44,8.9-44,59.6v208.4
		c0,47.4,1.1,56.3,44.6,56.3v19.5c-23.4-1.7-43.4-2.8-65.2-2.8c-22.8,0-46.8,1.7-69.7,2.8v-19.5h8.9c5.6,0,12.3-0.5,17.3-2.2
		c17.3-5,17.8-12.8,17.8-65.2V332.7c0-61.3,0-67.4-44.6-67.4V246.3z"/>
	<path class="st0" d="M3203.9,615.2c-29.5,2.2-35.1,4.5-35.1,52.9c0,36.8,1.7,45.7,5.6,62.4c-19.5,6.7-65.8,22.8-125.4,22.8
		c-138.7,0-188.4-97-188.4-185.6c0-103.6,68.5-188.9,194.5-188.9c34.6,0,48.5,3.3,108.1,18.4c3.3,1.1,7.2,1.7,11.2,2.8l8.4,80.2
		l-16.2,2.2c-2.8-11.7-6.1-26.2-20.1-43.5c-20.6-25.6-53.5-36.2-86.4-36.2c-97,0-147.7,80.2-147.7,168.8
		c0,89.7,51.8,157.1,142.1,157.1c31.2,0,50.7-8.4,57.4-13.4c12.3-8.9,12.3-19.5,12.3-54.1c0-40.7-2.2-42.4-58.5-44.6v-19.5
		c25.1,1.7,49,2.8,73.5,2.8c21.8,0,42.9-1.1,64.7-2.8V615.2z"/>
	<path class="st0" d="M3270.2,246.3c21.8,1.7,42.9,2.8,64.1,2.8c21.8,0,43.5-1.7,65.2-2.8v18.9c-42.4,0.5-42.9,9.5-42.9,60.8v135.4
		c0,53.5,0.5,128.2,105.3,128.2c45.1,0,69.1-18.9,79.7-32.9c22.3-29,23.4-73.5,23.4-105.3V318.8c0-42.9-3.9-52.9-40.7-53.5v-18.9
		c18.9,1.7,36.8,2.8,55.1,2.8c16.7,0,33.5-1.1,50.7-2.8v18.9c-33.5,0.5-35.7,9.5-37.3,64.1c-0.6,20.6-2.2,122.6-3.4,145.4
		c-0.5,20.6-2.2,41.2-8.9,60.7c-18.4,56.3-66.9,79.1-129.8,79.1c-23.4,0-59.6-1.1-91.4-20.6c-47.4-29.5-49-76.3-49-137.6V332.7
		c0-56.3-1.1-66.3-40.2-67.4V246.3z"/>
	<path class="st0" d="M3711.8,246.3c20.6,1.7,34,2.8,51.3,2.8c12.8,0,25.6-1.1,39-2.8L4015,527.8v-33.5
		c-0.6-40.7-1.7-157.7-3.9-191.7c-2.2-32.9-12.8-37.3-42.9-37.3v-18.9c18.4,2.2,36.8,2.8,55.7,2.8c20.1,0,39.6-1.1,60.2-2.8v18.9
		c-41.2,0-44,12.3-44,82.5v269.7h-11.1c-11.7-15.1-19-25.1-34.6-44.6c-17.8-22.3-44.6-56.8-75.2-97
		c-24.5-32.3-72.5-94.8-114.2-147.7l-22.3-28.4c-0.5,17.8-0.5,36.2-0.5,54.6c0,25.1,0,50.2,0.5,74.7c1.1,74.7,1.7,99.2,3.3,123.1
		c2.8,32.9,11.2,37.3,42.9,37.3v19.5c-21.1-0.5-38.5-2.8-57.4-2.8c-20.1,0-39,2.2-59.1,2.8v-19.5c25.1-0.5,37.3-3.3,40.7-32.3
		c3.9-37.9,4.5-197.8,4.5-238.5c0-41.8-2.2-52.4-45.7-53.5V246.3z"/>
	<path class="st0" d="M4499.9,597.8c-29.5,2.2-35.1,4.5-35.1,52.9c0,36.8,1.7,45.7,5.6,62.4c-19.5,6.7-65.8,22.8-125.4,22.8
		c-138.7,0-188.4-97-188.4-185.6c0-103.6,68.5-188.9,194.5-188.9c34.6,0,48.5,3.3,108.1,18.4c3.3,1.1,7.2,1.7,11.2,2.8l8.4,80.2
		l-16.2,2.2c-2.8-11.7-6.1-26.2-20.1-43.5c-20.6-25.6-53.5-36.2-86.4-36.2c-97,0-147.7,80.2-147.7,168.8
		c0,89.7,51.8,157.1,142.1,157.1c31.2,0,50.7-8.4,57.4-13.4c12.3-8.9,12.3-19.5,12.3-54.1c0-40.7-2.2-42.4-58.5-44.6v-19.5
		c25.1,1.7,49,2.8,73.5,2.8c21.8,0,42.9-1.1,64.7-2.8V597.8z"/>
</g>
</svg>

<?xml version="1.0" encoding="UTF-8" standalone="no"?>
<!DOCTYPE svg PUBLIC "-//W3C//DTD SVG 1.1//EN" "http://www.w3.org/Graphics/SVG/1.1/DTD/svg11.dtd">
<svg width="100%" height="100%" viewBox="0 0 512 512" version="1.1" xmlns="http://www.w3.org/2000/svg" xmlns:xlink="http://www.w3.org/1999/xlink" xml:space="preserve" xmlns:serif="http://www.serif.com/" style="fill-rule:evenodd;clip-rule:evenodd;stroke-linecap:round;stroke-linejoin:round;stroke-miterlimit:1.5;">
    <g transform="matrix(1,0,0,1,0,-164.95)">
        <g transform="matrix(1,0,0,0.954654,0,173.217303)">
            <rect x="56" y="50" width="400" height="419" style="fill:rgb(255,255,235);stroke:black;stroke-width:1.02px;"/>
        </g>
        <path d="M127.8,246.3C159,248.5 174.6,249.1 253.2,249.1C292.2,249.1 327.9,247.4 369.1,246.3C371.9,277.5 372.5,287 376.9,321L356.8,324.9C348.4,278.1 338.4,270.3 259.8,270.3C241.4,270.3 233,270.9 224.7,272C219.7,272.5 216.9,272.5 216.9,284.8L216.9,411.9L260.3,411.9C318.3,411.9 330,408 330,366.2L350.1,366.2C349,382.9 347.9,405.2 347.9,421.3C347.9,441.4 348.5,453.1 350.1,475.4L330,475.4C327.2,436.9 318.8,433.1 274.3,433.1L217,433.1L217,502.7C217,514.4 217.5,553.4 219.2,564.6C222.6,584.7 240.4,585.2 285,585.2C317.9,585.2 340.2,585.2 355.8,577.4C374.7,567.4 380.9,548.4 388.7,523.9L407.1,528.4C398.2,566.3 397.1,574.7 389.8,609.2C372,606.4 343.5,606.4 218.1,606.4C186.9,606.4 149,606.4 127.8,609.2L127.8,589.7C161.8,588.6 170.7,586.9 170.7,550.2L170.7,314.9C170.7,274.8 167.4,265.8 127.8,265.3L127.8,246.3Z" style="fill:rgb(49,49,49);fill-rule:nonzero;stroke:black;stroke-width:1px;stroke-linecap:butt;stroke-miterlimit:2;"/>
    </g>
</svg>
